X: 1
T: Newfoundout, The
M: 6/8
L: 1/8
R: jig
K: Gmaj
|:DED cBc|BAG FGA|FEF DEF|GAG FED|
DED cBc|BAG FGA|ded cAG|AGE D3:|
|:ded def|aba fed|gag fed|cdc BAG|
DED FEF|GFG ABc|ded cAG|AGE D3:|
